src/assets/images/jcb.svg

<?xml version="1.0" encoding="UTF-8"?>
<svg width="86px" height="66px" viewBox="0 0 86 66" version="1.1" xmlns="http://www.w3.org/2000/svg" xmlns:xlink="http://www.w3.org/1999/xlink">
    <!-- Generator: Sketch 56.3 (81716) - https://sketch.com -->
    <title>JCB_logo</title>
    <desc>Created with Sketch.</desc>
    <defs>
        <linearGradient x1="-57.5270968%" y1="50.1241953%" x2="232.39121%" y2="50.1241953%" id="linearGradient-1">
            <stop stop-color="#007940" offset="0%"></stop>
            <stop stop-color="#00873F" offset="22.85%"></stop>
            <stop stop-color="#40A737" offset="74.33%"></stop>
            <stop stop-color="#5CB531" offset="100%"></stop>
        </linearGradient>
        <linearGradient x1="0.182516704%" y1="49.95997%" x2="100.273441%" y2="49.95997%" id="linearGradient-2">
            <stop stop-color="#007940" offset="0%"></stop>
            <stop stop-color="#00873F" offset="22.85%"></stop>
            <stop stop-color="#40A737" offset="74.33%"></stop>
            <stop stop-color="#5CB531" offset="100%"></stop>
        </linearGradient>
        <linearGradient x1="-62.8015845%" y1="49.8578253%" x2="253.671294%" y2="49.8578253%" id="linearGradient-3">
            <stop stop-color="#007940" offset="0%"></stop>
            <stop stop-color="#00873F" offset="22.85%"></stop>
            <stop stop-color="#40A737" offset="74.33%"></stop>
            <stop stop-color="#5CB531" offset="100%"></stop>
        </linearGradient>
        <linearGradient x1="0.175556793%" y1="50.0058048%" x2="101.808162%" y2="50.0058048%" id="linearGradient-4">
            <stop stop-color="#1F286F" offset="0%"></stop>
            <stop stop-color="#004E94" offset="47.51%"></stop>
            <stop stop-color="#0066B1" offset="82.61%"></stop>
            <stop stop-color="#006FBC" offset="100%"></stop>
        </linearGradient>
        <linearGradient x1="-0.575855512%" y1="49.9142191%" x2="98.13299%" y2="49.9142191%" id="linearGradient-5">
            <stop stop-color="#6C2C2F" offset="0%"></stop>
            <stop stop-color="#882730" offset="17.35%"></stop>
            <stop stop-color="#BE1833" offset="57.31%"></stop>
            <stop stop-color="#DC0436" offset="85.85%"></stop>
            <stop stop-color="#E60039" offset="100%"></stop>
        </linearGradient>
    </defs>
    <g id="Page-1" stroke="none" stroke-width="1" fill="none" fill-rule="evenodd">
        <g id="JCB_logo" fill-rule="nonzero">
            <path d="M86,52.6952381 C86,60.0285714 80.007335,66 72.6479218,66 L0,66 L0,13.3047619 C0,5.97142857 5.99266504,0 13.3520782,0 L86,0 L86,52.6952381 Z" id="path6325" fill="#FFFFFF"></path>
            <g id="g6327" transform="translate(57.000000, 5.000000)">
                <path d="M4.6,34.4590909 L9.96666667,34.4590909 C10.12,34.4590909 10.4777778,34.4072727 10.6311111,34.4072727 C11.6533333,34.2 12.5222222,33.2672727 12.5222222,31.9718182 C12.5222222,30.7281818 11.6533333,29.7954545 10.6311111,29.5363636 C10.4777778,29.4845455 10.1711111,29.4845455 9.96666667,29.4845455 L4.6,29.4845455 L4.6,34.4590909 Z" id="path6338" fill="url(#linearGradient-1)"></path>
                <path d="M9.35333333,0.103636364 C4.24222222,0.103636364 0.0511111111,4.30090909 0.0511111111,9.53454545 L0.0511111111,19.3281818 L13.1866667,19.3281818 C13.4933333,19.3281818 13.8511111,19.3281818 14.1066667,19.38 C17.0711111,19.5354545 19.2688889,21.09 19.2688889,23.7845455 C19.2688889,25.9090909 17.7866667,27.7227273 15.0266667,28.0854545 L15.0266667,28.1890909 C18.0422222,28.3963636 20.3422222,30.1063636 20.3422222,32.7490909 C20.3422222,35.5990909 17.7866667,37.4645455 14.4133333,37.4645455 L2.58852978e-14,37.4645455 L2.58852978e-14,56.6372727 L13.6466667,56.6372727 C18.7577778,56.6372727 22.9488889,52.44 22.9488889,47.2063636 L22.9488889,0.103636364 L9.35333333,0.103636364 Z" id="path6349" fill="url(#linearGradient-2)"></path>
                <path d="M11.8577778,24.4063636 C11.8577778,23.1627273 10.9888889,22.3336364 9.96666667,22.1781818 C9.86444444,22.1781818 9.60888889,22.1263636 9.45555556,22.1263636 L4.6,22.1263636 L4.6,26.6863636 L9.45555556,26.6863636 C9.60888889,26.6863636 9.91555556,26.6863636 9.96666667,26.6345455 C10.9888889,26.4790909 11.8577778,25.65 11.8577778,24.4063636 L11.8577778,24.4063636 Z" id="path6360" fill="url(#linearGradient-3)"></path>
            </g>
            <path d="M13.3741648,5 C8.25167038,5 4.05122494,9.23577982 4.05122494,14.5174312 L4.05122494,37.9972477 C6.6636971,39.3045872 9.37861915,40.1412844 12.0935412,40.1412844 C15.3207127,40.1412844 17.0623608,38.1541284 17.0623608,35.4348624 L17.0623608,24.3486239 L25.0534521,24.3486239 L25.0534521,35.3825688 C25.0534521,39.6706422 22.44098,43.1743119 13.5790646,43.1743119 C8.20044543,43.1743119 4,41.9715596 4,41.9715596 L4,62 L17.6770601,62 C22.7995546,62 27,57.7642202 27,52.4825688 L27,5 L13.3741648,5 Z" id="path6371" fill="url(#linearGradient-4)"></path>
            <path d="M41.3229399,5 C36.2004454,5 32,9.22802198 32,14.5 L32,26.9230769 C34.3563474,24.8873626 38.454343,23.5824176 45.0623608,23.8956044 C48.596882,24.0521978 52.3875278,25.043956 52.3875278,25.043956 L52.3875278,29.0631868 C50.4922049,28.0714286 48.2383073,27.1840659 45.3184855,26.9752747 C40.298441,26.6098901 37.2761693,29.1153846 37.2761693,33.5 C37.2761693,37.9368132 40.298441,40.4423077 45.3184855,40.0247253 C48.2383073,39.8159341 50.4922049,38.8763736 52.3875278,37.9368132 L52.3875278,41.956044 C52.3875278,41.956044 48.6481069,42.9478022 45.0623608,43.1043956 C38.454343,43.4175824 34.3563474,42.1126374 32,40.0769231 L32,62 L45.6770601,62 C50.7995546,62 55,57.771978 55,52.5 L55,5 L41.3229399,5 Z" id="path6384" fill="url(#linearGradient-5)"></path>
        </g>
    </g>
</svg>

<svg xmlns="http://www.w3.org/2000/svg" width="86" height="66"><defs><linearGradient x1="-57.5270968%" y1="50.1241953%" x2="232.39121%" y2="50.1241953%" id="A"><stop stop-color="#007940" offset="0%"/><stop stop-color="#00873f" offset="22.85%"/><stop stop-color="#40a737" offset="74.33%"/><stop stop-color="#5cb531" offset="100%"/></linearGradient><linearGradient x1="0.182516704%" y1="49.95997%" x2="100.273441%" y2="49.95997%" id="B"><stop stop-color="#007940" offset="0%"/><stop stop-color="#00873f" offset="22.85%"/><stop stop-color="#40a737" offset="74.33%"/><stop stop-color="#5cb531" offset="100%"/></linearGradient><linearGradient x1="-62.8015845%" y1="49.8578253%" x2="253.671294%" y2="49.8578253%" id="C"><stop stop-color="#007940" offset="0%"/><stop stop-color="#00873f" offset="22.85%"/><stop stop-color="#40a737" offset="74.33%"/><stop stop-color="#5cb531" offset="100%"/></linearGradient><linearGradient x1="0.175556793%" y1="50.0058048%" x2="101.808162%" y2="50.0058048%" id="D"><stop stop-color="#1f286f" offset="0%"/><stop stop-color="#004e94" offset="47.51%"/><stop stop-color="#0066b1" offset="82.61%"/><stop stop-color="#006fbc" offset="100%"/></linearGradient><linearGradient x1="-0.575855512%" y1="49.9142191%" x2="98.13299%" y2="49.9142191%" id="E"><stop stop-color="#6c2c2f" offset="0%"/><stop stop-color="#882730" offset="17.35%"/><stop stop-color="#be1833" offset="57.31%"/><stop stop-color="#dc0436" offset="85.85%"/><stop stop-color="#e60039" offset="100%"/></linearGradient></defs><g fill-rule="nonzero"><path d="M86 52.695C86 60.03 80.007 66 72.648 66H0V13.305C0 5.97 5.993 0 13.352 0H86v52.695z" fill="#fff"/><path d="M61.6 39.46h5.367c.153 0 .51-.052.664-.052 1.022-.207 1.89-1.14 1.89-2.435 0-1.244-.87-2.176-1.89-2.435-.153-.052-.46-.052-.664-.052H61.6v4.975z" fill="url(#A)"/><path d="M66.353 5.104c-5.11 0-9.302 4.197-9.302 9.43v9.794h13.136c.307 0 .664 0 .92.052 2.964.155 5.162 1.7 5.162 4.405 0 2.125-1.482 3.938-4.242 4.3v.104c3.016.207 5.316 1.917 5.316 4.56 0 2.85-2.556 4.715-5.93 4.715H57v19.173h13.647c5.11 0 9.302-4.197 9.302-9.43V5.104H66.353z" fill="url(#B)"/><path d="M68.858 29.406a2.19 2.19 0 0 0-1.891-2.228c-.102 0-.358-.052-.51-.052H61.6v4.56h4.856c.153 0 .46 0 .51-.052a2.19 2.19 0 0 0 1.891-2.228z" fill="url(#C)"/><path d="M13.374 5C8.252 5 4.05 9.236 4.05 14.517v23.48c2.612 1.307 5.327 2.144 8.042 2.144 3.227 0 4.97-1.987 4.97-4.706V24.35h7.99v11.034c0 4.288-2.612 7.792-11.474 7.792-5.38 0-9.58-1.203-9.58-1.203V62h13.677C22.8 62 27 57.764 27 52.483V5H13.374z" fill="url(#D)"/><path d="M41.323 5C36.2 5 32 9.228 32 14.5v12.423c2.356-2.036 6.454-3.34 13.062-3.027 3.535.157 7.325 1.148 7.325 1.148v4.02c-1.895-.992-4.15-1.88-7.07-2.088-5.02-.365-8.042 2.14-8.042 6.525 0 4.437 3.022 6.942 8.042 6.525 2.92-.21 5.174-1.148 7.07-2.088v4.02s-3.74.992-7.325 1.148c-6.608.313-10.706-.992-13.062-3.027V62h13.677C50.8 62 55 57.772 55 52.5V5H41.323z" fill="url(#E)"/></g></svg>
